X: 52
T:V. Hacia Belén va una Burra
M:3/4
L:1/8
Q:200
C:Trad
R:Villancico.
K:C
G2 | C2 C2 C2 | C4 E2 | G2F2E2 | D2 DCB,C | 
DE DCB,C | D2 DCB,C | DE DCB,C | D4 D2 |
E2F2A2 | G4 F2 | E4 D2| C4 :|: EF | G2 G2 D2 | 
E4 EF | G2 G2 D2 | E4 CC| F2 F2  D2 | E2 E2 C2 |
D2 D2 B,2 | C4 :|

